X:735
T:Sheet of Ice, The
C:Nigel Gatherer Nov 2004
Z:Nigel Gatherer
L:1/8
M:6/8
K:Am
EAB cBA | FAB cBA | ^FAB cBA | ^GAB GAB  |
EAB cBA | FAB cBA | ^FAB cBA | ^GAB cde ||
fdB Bcd | ecA ABc | B^GE EGB | AcA ^cde  |
fdB Bcd | ecA ABc | B^GE EGB | BA^G A3  ||
<end>
<start>
